X:640
T:Reel 640
M:4/4
K:Ador
L:1/8
ABcA GEDE|GEDB dBAB|AEDE G2Bd||BAGE DB,EB:||2BGGE D2||||efec d2BG|GBBc dedd|edce d2GB|AGAB c2Bc|dcdB AcBc|d2GB dGBd|ecdB cABG|AGBA GEED|
